X:0254
T:Sussie.
M:2/4
L:1/8
Q:1/2=84
I: :: ::
Z:Jack Campin * www.campin.me.uk * 2009
K:D
B|A>FD>F|E>FGB|A>FD>F     |Addc/B/|\
  A>FD>F|E>FGB|AF D/E/F/G/|Add   :|
A|d>fe>g|f>dcA|d>feg      |f(aa)f |\
  g>feg |f>dcA|Bd e/d/c/B/|Add   :|
<end>
<start>
